X:1
T:Alma, che scorgi
T:André Vierendeels
T:Source : Melody from "Corona di Sacre canzoni o Laude spirituali" (tenor voice) Firenze---Eredi Francesco Orofri---1689. Editor : André Vierendeels ( 05/12/17). Notes : Original clef : C4, other voices supplied editorially Music compiled by Matteo Cofrati
T:Alma, che scorgi
T:©
T:©
C:André Vierendeels
Z:©
%%score [ 1 2 3 ]
L:1/8
Q:1/4=120
M:4/4
K:F
V:1 treble nm="Soprano" snm="S"
V:2 treble nm="Alto" snm="A"
V:3 treble-8 nm="Tenor" snm="T"
V:1
 B4 B2 c2 | d2 e2 A4 | d4 c2 A2 | A2 G2 A4 | B4 A2 d2 | c2 B2 A2 B2 |[M:2/4] A4 :: A4 | %8
w: Al- ma, che|scor- gi tu|tan- to di|bel quag- giu,|ch'al Ciel non|mi- ri'o pen- *|si,|or|
w: Deh, le- va|gli- oc- 'al|Ciel, mi- ra'l|not- tur- no|vel di mil-|le fiam- me'a- dor-|no,|mi-|
[M:4/4] c2 d2 _e2 c2 | B4 A4 | c2 d2 _e2 c2 | A2 B2 B2 c2 | A4 B4 | c4 B2 A2 | =B8 :| %15
w: non fai tu, ch'un|di- cio,|che piu ca- ro'e|qui _ la- *|sciar con-|vien- * *|si?|
w: ra'l Sol, com' e-|i va|l'am- mi- ra- bil|bel _ ta, _|mo- stran-|do'in tor- *|no.|
V:2
 D4 E2 E2 | G2 E2 F4 | A4 A2 A2 | E2 E2 D4 | F4 F2 G2 | E2 G2 D4 |[M:2/4] F4 :: F4 | %8
w: Al- ma, che|scor- gi tu|tan- to di|bel quag- giu,|ch'al Ciel non|mi- ri'o pen-|si,|or|
w: Deh, s'ei n'al-|let- t'a se|con si bei|rai, per- chè,|pur gli'oc- chi'a|ter- ra gi-|ri?|las-|
[M:4/4] G2 F2 G2 G2 | G2 F2 A4 | A2 F2 G2 G2 | F2 G2 G2 E2 | F4 G4- | G4 ^F4 | D8 :| %15
w: non fai tu, ch'un|di- * cio,|che piu ca- ro'è|qui _ la- *|sciar con-|* vien-|si?|
w: su mi- rar si|puo ve- ra|bel- * tà, qui|no, _ do- *|ve so-|spi- *|ri.|
V:3
 G4 G2 A2 | B2 c2 d4 | f4 f2 d2 | c2 c2 d4 | d4 c2 B2 | A2 G2 F4 |[M:2/4] D4 :: d4 | %8
w: Al- ma, che|scor- gi tu|tan- to di|bel quag- giu,|ch'al Ciel non|mi- ri'o pen-|si,|or|
w: Ro- sa, che|l'Al- ba'a- pri,|poi lan- gue'al|fin d'un di;|tal' è vi-|ta mor- ta-|le,|bel-|
[M:4/4] _e2 d2 c2 c2 | d4 f4 | f2 d2 c2 c2 | d4- d2 c2 | d6 B2 | A8 | G8 :| %15
w: non fai tu, ch'un|di- cio,|che piu ca- ro'è|qui, _ la-|sciar con|vien-|si?|
w: lez- za, e gio-|ven- tu,|rar- ta sen fug-|g'e piu che|ven- t'o|stra-|le.|

